X:1
T:Title
%%score { 1 | 2 }
L:1/8
Q:1/4=124
M:4/4
K:F
V:1 treble nm="Grand Piano"
V:2 bass 
V:1
 F2 A2 c2 F2 | [Fd]2 [Ec]2 [Fc]4 | [Ec]2 [EG]2 [EG]2 [GB]2 | [GB]2 A4 z2 | F2 A2 c2 F2 | %5
w: S.~J.~Vail * * *|||||
 [Fd]2 [Ec]2 [Fc]4 | [GB]2 [FA]2 [EG]3 [Ec] | [FA]2 [CF]4 z2 | [EG]2 [Ed]2 [Fc]2 [CGB]2 | %9
w: ||||
 [CFA]3 [CGB] [CAc]4 | [CF]2 [B,CE]2 [A,CF]2 [CFA]2 | [CFA]2 [CEG]4 z2 | F2 A2 c2 F2 | %13
w: ||||
 [Fd]2 [Ec]2 [Fc]4 | [GB]2 [FA]2 [EG]3 [Ec] | A2 F4 z2 |] %16
w: |||
V:2
 F,2 A,2 C2 F,2 | [B,,B,]2 [C,G,]2 [F,A,]4 | [C,G,]2 [C,C]2 [C,C]2 [C,C]2 | [F,C]2 [F,CF]4 z2 | %4
 F,2 A,2 C2 F,2 | [B,,B,]2 [C,G,]2 [F,A,]4 | [C,C]2 [C,C]2 [C,C]3 [C,C] | [F,C]2 [F,A,]4 z2 | %8
 [C,C]2 [C,B,]2 [C,A,]2 E,2 | F,3 F, F,4 | F,2 G,2 F,2 F,2 | C,2 C,4 z2 | F,2 A,2 C2 F,2 | %13
 [B,,B,]2 [C,G,]2 [F,A,]4 | [C,C]2 [C,C]2 [C,C]3 [C,C] | [F,CF]2 [F,A,C]4 z2 |] %16

